X:385
T: Lough Earn
N: O'Farrell's Pocket Companion v.4 (Sky ed. p.165)
N: "Scotch"
M: 4/4
L: 1/8
Q: 320
R: reel
K: G
z| g2 dB G2BG| E2AG FDDF| g2 dB G2BG| EAFD G3 :|
g| efge fgab| gfge fddf| efge fgag| fefd g2Bd|
efge dBgB| ceBd AFED| GABG EGce| dBcA G2-G3 ||
